X: 1
T: the Devil in the Kitchen
T: the Prince of Wales' Jig
C: W. Ross, H.M. Piper
R: strathspey, reel
S: Potomac Valley Scottish Fiddle Club collection
M: 4/4
L: 1/8
K: A mix
[|\
"A"e>A A/A/A e>A "D"f>d | "A"e>A A/A/A "G"g2 f<a |\
"A"e>A A/A/A A/A/A  c>A | "G"B>G G/G/G g2 f<a |
|\
"A"e>A A/A/A e>A "D"f>d | "A"e>A A/A/A "G"g2 f<a |\
"A"e>A A/A/A A/A/A  c>A | "G"B>G d/c/B g2 f<g ||
[|\
"A"a>A A/A/A e>A A/A/A | "A"a>A A/A/A "G"g2 f<a |\
"A"a>A A/A/A A/A/A c>A | "G"B>G G/G/G g2 f>g |
|\
"A"a>A A/A/A e>A A/A/A | "A"a>A A/A/A "G"g2 f>g |\
"A"a/g/f "G"g>e "D"(3faA "A"e>c | "G"d/c/B g>B d<f |]
